X:1
T:Dear Adel My Son
M:3/4
L:1/4
K:G
F/2-G/2| A2 d| A2 c| B/2 A3/2 B| G2F/2-G/2| A2 d| A2 c| B A B| G3|\
 A3-| A D D| E/2 E3/2 D/2D/2| F3/2 D/2 D| G2 A/2B/2| A/2 B3/2 A| A2 G/2F/2|\
 G3/2 F/2 E| D2||
